assets/icons/lib/unlock.svg

<svg class="Icon Icon-unlock" width="24" height="24" viewBox="0 0 24 24" fill="none" xmlns="http://www.w3.org/2000/svg">
<path d="M19 9.99997H8V6.99997C8 5.99997 8.4 5.09997 9 4.29997C9.7 3.59997 10.6 3.09997 11.6 2.99997C12.6 2.89997 13.6 3.19997 14.4 3.79997C15.2 4.39997 15.7 5.29997 15.9 6.19997C16 6.69997 16.6 7.09997 17.1 6.99997C17.6 6.89997 18 6.39997 17.9 5.79997C17.6 4.29997 16.8 2.99997 15.6 2.19997C14.4 1.29997 12.9 0.899972 11.4 1.09997C9.9 1.19997 8.5 1.89997 7.5 2.99997C6.5 4.09997 6 5.49997 6 6.99997V9.99997H5C3.3 9.99997 2 11.3 2 13V20C2 21.7 3.3 23 5 23H19C20.7 23 22 21.7 22 20V13C22 11.3 20.7 9.99997 19 9.99997ZM20 20C20 20.6 19.6 21 19 21H5C4.4 21 4 20.6 4 20V13C4 12.4 4.4 12 5 12H19C19.6 12 20 12.4 20 13V20Z" fill="currentColor"/>
</svg>

<svg class="Icon Icon-unlock" viewBox="0 0 24 24" fill="none" xmlns="http://www.w3.org/2000/svg"><path d="M19 10H8V7c0-1 .4-1.9 1-2.7.7-.7 1.6-1.2 2.6-1.3 1-.1 2 .2 2.8.8.8.6 1.3 1.5 1.5 2.4.1.5.7.9 1.2.8.5-.1.9-.6.8-1.2-.3-1.5-1.1-2.8-2.3-3.6-1.2-.9-2.7-1.3-4.2-1.1-1.5.1-2.9.8-3.9 1.9C6.5 4.1 6 5.5 6 7v3H5c-1.7 0-3 1.3-3 3v7c0 1.7 1.3 3 3 3h14c1.7 0 3-1.3 3-3v-7c0-1.7-1.3-3-3-3Zm1 10c0 .6-.4 1-1 1H5c-.6 0-1-.4-1-1v-7c0-.6.4-1 1-1h14c.6 0 1 .4 1 1v7Z" fill="currentColor"/></svg>
